X:1
T: Aboyne Castle
T: The Marchioness of Huntly
C:Peter Milne
R:Strathspey
Q:128
K:A
M:4/4
L:1/16
|:C2|A,3B, C3F EC3 A,3c|d3B dcBA BG3 EC3|A,3B, C3F EC3 A,3d|(3c2d2e2 (3d2c2B2 cA3 A3C|
A,3B, C3F EC3 A,3c|d3B dcBA BE3 GB3|AE3 F3A EC3 D3d|(3c2d2e2 (3d2c2B2 cA3 A3e|
a3e dcBA eA3 c3A|d3e dcBA BE3 GB3|a3e dcBA e3A ce3|Bb3 edcB cA3 A3g|
a3A dcBA e3A c3A|DF3 CE3 B,3E GB3|A3E FA3 E3C D3d|c2de dcB2 cA3 A2:|
